X: 25
M: 2/4
L: 1/16
K: Bb
(uFE) | DdcB Agfe | gf "<>"d4 f2 | (fe)(ed) (dc)(cB) | Bd "<>"F4 (FE) |
|: vbg | fdBF dFBd | ecAF EFCE | DFBA GBed | c=Bcd .c2(ub>g) |
fdBF DFBd | ecAF EFCE | DFBF GecA | B2d2B2 :|


